X:1
T: Kitty Robertson
C:
R:Reel
Q: 232
K:G
M:4/4
L:1/8
|:B|d2 gd BG dB|Aa ag fd ef|gf gd ec dB|cA dc BG GB|
d2 gd BG dB|Aa ag fd ef|gf gd ec dB|cA dc BG Gc|
BG DG EG DG|AB cB ce dc|BG DG EG ce|dB cA BG GB|
B/A/G DG EG DG|AB cB ce dc|Bd gB ce ag|fd ef gG G:|
